!!!OTL: Wassermanns Braut. / A. Erste Art.
!!!ARE: Europa, Mitteleuropa, Deutschland
!!!SCT: A0090
!!!TXL: @@GMH
!!!YEM: Copyright 1995, estate of Helmut Schaffrath.
**kern	**text
*M2/4	*
*k[b-]	*
*F:	*
{8c	Es
=1	=1
8f	hatt
8e	ein
8f	Baur
8g	ein
=2	=2
8.a	Töch-
16g	-ter-
4f}	-lein
=3	=3
!LO:TX:a:t=Refr.	!
{8a	[Ʒwiſchen
8g	.
8a	Berg
8b-	und
=4	=4
8.cc	tie-
16b-	-fem
8a	Thal,
8f	wol
=5	=5
4ff	ü-
8dd	-ber
8ff	die
=6	=6
4cc	See],
8r}	.
{8cc	wie
=7	=7
8dd	hieß
8b-	es
8g	denn
8b-	mit
=8	=8
8cc	Namen
8a	.
8f}	ſein?
{8g	Die
=9	=9
8a	ſchö-
8cc	-ne
8b-/	Hanne-
8g	.
=10	=10
4f	-le.
8r}	.
==	==
!!!GTL: Balladen und Romanzen (erzählende Volkslieder)
!!!AGN: Romanze, Ballade, Lied
!! Aus der Breslauer Gegend, bei Hoffmann, Schles. BL. No. 1.
!!!ONB: ESAC (Essen Associative Code) Database: ALTDEU
!!!AMT: simple duple
!!!AIN: vox
!!!EED: Helmut Schaffrath
!!!EEV: 1.0
!!!URL-scan: https://rosdok.uni-rostock.de/mcrviewer/recordIdentifier/rosdok_ppn738218359/iview2/phys_0253.iview2?x=-425.8853427895981&y=2236.246335709351&scale=0.4823261117445838&rotation=0&layout=singlePageLayout
!!!ENC: Anna Maria Matuszewska
!!!EEV: 2024/22/02
*-	*-
